X: 17668
T: Holly Bush, The
R: reel
M: 4/4
K: Dmixolydian
A2FA DAFA|ABde fded|cGG2 EGG2|cedc AGFG|
A2FA DAFA|ABde fded|cGG2 cedc|AcGE D2FG:|
|:Add^c defg|adde dcAB|c2cB cdeg|aged cAGc|
Add^c defg|adde dcAB|cGG2 cedc|AcGE D2FG:|

